X:69
%%score 1 2
T:Joan Sanderson or The cushion dance.
M:3/4
L:1/8
K:Bb
V:1 clef-treble
V:2 clef-bass octave=-1
V:1
[DG]2d3c&x2D2x2|B3cA2&G2E4|[DG]2G2[CD]2|[B,G]6|[EG]2d3c&x2[DA]2x2|B3cA2&[DG]2[C^F]4|
V:2
"^Slow."x2A4&[GB]2^F2D2|[EG]2[Cc]4|[DB]4[DA]2|[EG]2[EG]2[B,D]2|[CG]2^F,2D2|G,2A,4|
V:1
[DG]2[CEG]2[CD]2|G6||[M:6/8]"^Quick."x2dd2c&G2xE3|d>edc2A&G3^F3|B2B c>dB&G3E2G|[^FA]2GG3|
V:2
B,2C2[D^F]2|[G,GB]6||[M:6/8][GB]3c3|B3A3|G3C3|D3G3|
V:1
G2dd2c&B,3[EG]3|d>edc2A&G3^F3|B2B c>dB&[DG]3[EG]2[DG]|[C^FA]2G[B,G]2||[BG]|A>BA^F2F&E3D3|G>AGD2G&B,3D3|
V:2
G,3C3|B,3A,3|G,3C,3|D,3G,2||G|C3D3|E3B3|
V:1
B2B c>dB&D3E2G|[EA]2GG2[DG]|A>BA^F2F&E3D3|G>AGD2G&B,3D3|B2Bc>dc&[DG]3[EG]2[DG]|[C^FA]2G[B,G]3||
V:2
G,3C3|D3G2[GB]|[Cc]3[DA]3|[EG]3[B,G]3|G,3C,3|D,3G,3|

